hero/solid/chart-pie.svg

<svg width="24" height="24" viewBox="0 0 24 24" fill="none" xmlns="http://www.w3.org/2000/svg">
<path fill-rule="evenodd" clip-rule="evenodd" d="M2.25 13.5C2.25 8.94365 5.94365 5.25 10.5 5.25C10.9142 5.25 11.25 5.58579 11.25 6V12.75H18C18.4142 12.75 18.75 13.0858 18.75 13.5C18.75 18.0563 15.0563 21.75 10.5 21.75C5.94365 21.75 2.25 18.0563 2.25 13.5Z" fill="#0F172A"/>
<path fill-rule="evenodd" clip-rule="evenodd" d="M12.75 3C12.75 2.58579 13.0858 2.25 13.5 2.25C18.0563 2.25 21.75 5.94365 21.75 10.5C21.75 10.9142 21.4142 11.25 21 11.25H13.5C13.0858 11.25 12.75 10.9142 12.75 10.5V3Z" fill="#0F172A"/>
</svg>

<svg viewBox="0 0 24 24" xmlns="http://www.w3.org/2000/svg"><g fill-rule="evenodd"><path d="M2.25 13.5v0c0-4.56 3.69-8.25 8.25-8.25v0c.41 0 .75.33.75.75v6.75H18v0c.41 0 .75.33.75.75v0c0 4.55-3.7 8.25-8.25 8.25 -4.56 0-8.25-3.7-8.25-8.25Z"/><path d="M12.75 3v0c0-.42.33-.75.75-.75v0c4.55 0 8.25 3.69 8.25 8.25v0c0 .41-.34.75-.75.75h-7.5v0c-.42 0-.75-.34-.75-.75V3Z"/></g></svg>
